_site/images/resources-page/source-code-escrow-image.svg

<svg fill="none" height="333" viewBox="0 0 432 333" width="432" xmlns="http://www.w3.org/2000/svg" xmlns:xlink="http://www.w3.org/1999/xlink"><mask id="a" height="333" maskUnits="userSpaceOnUse" width="432" x="0" y="0"><path d="m415.621.0839844h-399.2419c-9.04591 0-16.3791 7.4062856-16.3791 16.5424156v299.8316c0 9.136 7.33319 16.542 16.3791 16.542h399.2419c9.046 0 16.379-7.406 16.379-16.542v-299.8316c0-9.13613-7.333-16.5424156-16.379-16.5424156z" fill="#fff"/></mask><path d="m415.621.0839844h-399.2419c-9.04591 0-16.3791 7.4027956-16.3791 16.5346156v299.6894c0 9.132 7.33319 16.535 16.3791 16.535h399.2419c9.046 0 16.379-7.403 16.379-16.535v-299.6894c0-9.13182-7.333-16.5346156-16.379-16.5346156z" fill="#eff5fa"/><g mask="url(#a)"><path d="m324.521 331.609-234.439.561c-.5832-80.597 5.3743-124.379 17.873-131.343 18.747-10.447 25.424-6.585 46.254-8.117 3.522-.306 7.198-.459 11.18-.612 7.199-.306 15.01-.46 23.587-.46 9.955 0 24.505.154 40.587.46 2.604 0 5.36.153 7.964.153 95.571-1.838 83.625 32.772 86.994 139.358z" fill="#3377c6"/><path d="m266.931 331.604h-75.048c22.82-13.017 46.254-26.34 63.408-22.512 9.036 1.838 11.64 12.558 11.64 22.512z" fill="#ffa79b"/><path d="m156.042 331.604h-1.991c-5.82-27.412-11.794-54.825-17.767-82.084-.306-1.225 1.532-1.684 1.838-.459 6.127 27.412 12.1 54.977 17.92 82.543z" fill="#fff"/><path d="m273.824 155.343c0 10.72-5.667 15.927-12.713 15.927-7.045 0-12.865-7.198-12.865-15.927s5.973-15.926 12.865-15.926c6.893 0 12.713 7.197 12.713 15.926z" fill="#2252b2"/><path d="m226.498 192.405c6.892 27.565-11.181 39.357-23.893 38.285-20.064-1.838-33.695-17.611-37.371-38.438 7.199-.306 15.01-.46 23.587-.46 9.955 0 24.505.154 40.587.46 2.757 0-5.667.153-2.91.153z" fill="#ffa79b"/><path d="m172.125 199.448 47.479 16.08 6.28-12.558 7.964-16.08 13.784-27.871-34.307-15.161c-1.532 3.522-41.2 55.59-41.2 55.59z" fill="#ffa79b"/><path d="m225.734 202.97-.306.612c-5.82-6.278-9.19-14.548-10.109-23.583-1.225-11.945 2.757-21.899 6.739-32.313l25.272 11.18-13.785 27.871z" fill="#000"/><path d="m216.235 114.762c14.091-12.098 56.056 4.901 52.227 22.818-2.91 13.323-11.18 50.383-19.451 55.59-16.388 10.567-35.073-3.063-40.128-19.296-5.207-16.386-6.586-47.167 7.352-59.112z" fill="#ffa79b"/><path d="m215.165 143.094c6.28 6.279 18.533-6.585 21.443-12.404 8.117 3.369 23.127 3.369 30.785-.613-6.586-14.701-39.209-25.727-51.309-15.314-6.432 5.513-9.649 15.314-10.721 25.574 3.37-.153 7.505.46 9.802 2.757z" fill="#d24a43"/><path d="m194.793 136.508c4.136-5.053 14.244-5.206 18.839 2.451-2.144 6.738-4.135 13.629-5.973 20.52-3.982.46-11.334-1.837-14.397-6.585-3.37-5.666-2.91-10.873 1.531-16.386z" fill="#ffa79b"/><g fill="#2252b2"><path d="m216.234 148.452c0 10.72-5.667 15.927-12.712 15.927-7.046 0-12.866-7.198-12.866-15.927s5.973-15.927 12.866-15.927c7.045 0 12.712 7.198 12.712 15.927z"/><path d="m269.226 119.202c-2.604-3.216-6.586-4.135-10.415-4.748-6.432-.918-12.865-1.531-19.145-2.297-6.432-.765-12.865-1.684-19.298-2.297-4.441-.306-9.036-.153-12.712 2.604-8.577 6.278-6.586 18.223-4.748 27.105.306 1.225 2.144.613 1.838-.459-2.144-9.801-3.829-24.656 9.343-27.106 4.595-.766 9.342.153 13.937.766 5.054.612 10.109 1.225 15.163 1.838 8.424 1.071 23.74-.307 26.65 9.954 2.45 8.575-2.298 17.304-.46 25.88.306 1.225 1.991.613 1.838-.459-1.991-9.801 5.054-22.052-1.991-30.781z"/><path d="m224.811 176.015c-11.793-1.991-19.298-12.557-17.153-24.349.153-1.225-1.532-1.685-1.838-.459-2.298 12.71 5.667 24.502 18.379 26.646 1.225.153 1.838-1.685.612-1.838z"/></g><path d="m241.508 179.233c-2.756.306-5.36-2.91-4.135-5.513.46-1.072-1.072-1.991-1.685-.919-1.838 3.829 1.379 8.882 5.667 8.423 1.379-.306 1.379-2.144.153-1.991z" fill="#d24a43"/><path d="m256.056 160.857c-.306-1.225-1.991-.613-1.837.459.612 2.757-2.451 4.288-4.595 2.757-.919-.766-1.838.919-.919 1.685 3.676 2.603 8.27-.766 7.351-4.901z" fill="#d24a43"/><path d="m242.275 146.766c-.612 1.379-1.378 2.91-1.991 4.288-.46 1.072 1.072 1.991 1.685.919.613-1.378 1.379-2.909 1.991-4.288.46-1.072-1.225-1.991-1.685-.919z" fill="#000"/><path d="m261.42 149.831c-.613 1.379-1.379 2.91-1.992 4.288-.459 1.072 1.073 1.991 1.685.919.613-1.378 1.379-2.91 1.992-4.288.459-1.072-1.226-1.991-1.685-.919z" fill="#000"/><path d="m247.939 139.724c-1.072-.153-2.144-.459-3.063-.612s-1.991.306-2.297 1.378c-.306.919.306 2.144 1.378 2.297s2.145.46 3.063.613c.919.153 1.992-.307 2.298-1.379.306-.918-.306-1.99-1.379-2.297z" fill="#952c28"/><path d="m263.717 140.335c-.766-.154-1.532-.46-2.145-.613-2.297-.613-3.369 2.91-1.072 3.675.766.154 1.532.46 2.145.613 2.297.613 3.369-3.063 1.072-3.675z" fill="#952c28"/><path d="m441.737 217.224h-166.986l-58.126 114.695h225.112z" fill="#000"/><path d="m352.222 261.477c-12.718 14.242-25.588 28.483-38.305 42.571-.766.919.459 2.297 1.379 1.378l38.305-42.571c.766-.918-.613-2.296-1.379-1.378z" fill="#fff"/><path d="m356.514 272.045c-9.5 10.259-18.999 20.672-28.652 30.932-.766.919.46 2.297 1.379 1.378 9.5-10.259 18.999-20.672 28.652-30.932.766-.919-.613-2.297-1.379-1.378z" fill="#fff"/><path d="m341.433 191.559c-10.987-3.017-22.431 1.056-28.993 10.407-1.373 1.96 1.832 3.77 3.205 1.81 5.493-7.843 15.411-11.161 24.719-8.597 2.442.603 3.357-3.017 1.069-3.62z" fill="#feca55"/><path d="m346.621 172.249c-19.227-9.2-41.2-2.111-50.508 17.043-1.068 2.112 2.137 4.072 3.205 1.81 8.392-17.194 27.619-24.132 45.319-15.686 2.136 1.056 4.12-2.111 1.984-3.167z" fill="#feca55"/></g></svg>

<svg width="432" height="333" viewBox="0 0 432 333" fill="none" xmlns="http://www.w3.org/2000/svg">
<path d="M415.621 0.0839844H16.3791C7.33319 0.0839844 0 7.48678 0 16.6186V316.308C0 325.44 7.33319 332.843 16.3791 332.843H415.621C424.667 332.843 432 325.44 432 316.308V16.6186C432 7.48678 424.667 0.0839844 415.621 0.0839844Z" fill="#EFF5FA"/>
<mask id="mask0" mask-type="alpha" maskUnits="userSpaceOnUse" x="0" y="0" width="432" height="333">
<path d="M415.621 0.0839844H16.3791C7.33319 0.0839844 0 7.49027 0 16.6264V316.458C0 325.594 7.33319 333 16.3791 333H415.621C424.667 333 432 325.594 432 316.458V16.6264C432 7.49027 424.667 0.0839844 415.621 0.0839844Z" fill="white"/>
</mask>
<g mask="url(#mask0)">
<path d="M324.521 331.609L90.082 332.17C89.4988 251.573 95.4563 207.791 107.955 200.827C126.702 190.38 133.379 194.242 154.209 192.71C157.731 192.404 161.407 192.251 165.389 192.098C172.588 191.792 180.399 191.638 188.976 191.638C198.931 191.638 213.481 191.792 229.563 192.098C232.167 192.098 234.923 192.251 237.527 192.251C333.098 190.413 321.152 225.023 324.521 331.609Z" fill="#3377C6"/>
<path d="M266.931 331.604H191.883C214.703 318.587 238.137 305.264 255.291 309.092C264.327 310.93 266.931 321.65 266.931 331.604Z" fill="#FFA79B"/>
<path d="M156.042 331.604H154.051C148.231 304.192 142.257 276.779 136.284 249.52C135.978 248.295 137.816 247.836 138.122 249.061C144.249 276.473 150.222 304.038 156.042 331.604Z" fill="white"/>
<path d="M273.824 155.343C273.824 166.063 268.157 171.27 261.111 171.27C254.066 171.27 248.246 164.072 248.246 155.343C248.246 146.614 254.219 139.417 261.111 139.417C268.004 139.417 273.824 146.614 273.824 155.343Z" fill="#2252B2"/>
<path d="M226.498 192.405C233.39 219.97 215.317 231.762 202.605 230.69C182.541 228.852 168.91 213.079 165.234 192.252C172.433 191.946 180.244 191.792 188.821 191.792C198.776 191.792 213.326 191.946 229.408 192.252C232.165 192.252 223.741 192.405 226.498 192.405Z" fill="#FFA79B"/>
<path d="M172.125 199.448L219.604 215.528L225.884 202.97L233.848 186.89L247.632 159.019L213.325 143.858C211.793 147.38 172.125 199.448 172.125 199.448Z" fill="#FFA79B"/>
<path d="M225.734 202.97L225.428 203.582C219.608 197.304 216.238 189.034 215.319 179.999C214.094 168.054 218.076 158.1 222.058 147.686L247.33 158.866L233.545 186.737L225.734 202.97Z" fill="black"/>
<path d="M216.235 114.762C230.326 102.664 272.291 119.663 268.462 137.58C265.552 150.903 257.282 187.963 249.011 193.17C232.623 203.737 213.938 190.107 208.883 173.874C203.676 157.488 202.297 126.707 216.235 114.762Z" fill="#FFA79B"/>
<path d="M215.165 143.094C221.445 149.373 233.698 136.509 236.608 130.69C244.725 134.059 259.735 134.059 267.393 130.077C260.807 115.376 228.184 104.35 216.084 114.763C209.652 120.276 206.435 130.077 205.363 140.337C208.733 140.184 212.868 140.797 215.165 143.094Z" fill="#D24A43"/>
<path d="M194.793 136.508C198.929 131.455 209.037 131.302 213.632 138.959C211.488 145.697 209.497 152.588 207.659 159.479C203.677 159.939 196.325 157.642 193.262 152.894C189.892 147.228 190.352 142.021 194.793 136.508Z" fill="#FFA79B"/>
<path d="M216.234 148.452C216.234 159.172 210.567 164.379 203.522 164.379C196.476 164.379 190.656 157.181 190.656 148.452C190.656 139.723 196.629 132.525 203.522 132.525C210.567 132.525 216.234 139.723 216.234 148.452Z" fill="#2252B2"/>
<path d="M269.226 119.202C266.622 115.986 262.64 115.067 258.811 114.454C252.379 113.536 245.946 112.923 239.666 112.157C233.234 111.392 226.801 110.473 220.368 109.86C215.927 109.554 211.332 109.707 207.656 112.464C199.079 118.742 201.07 130.687 202.908 139.569C203.214 140.794 205.052 140.182 204.746 139.11C202.602 129.309 200.917 114.454 214.089 112.004C218.684 111.238 223.431 112.157 228.026 112.77C233.08 113.382 238.135 113.995 243.189 114.608C251.613 115.679 266.929 114.301 269.839 124.562C272.289 133.137 267.541 141.866 269.379 150.442C269.685 151.667 271.37 151.055 271.217 149.983C269.226 140.182 276.271 127.931 269.226 119.202Z" fill="#2252B2"/>
<path d="M224.811 176.015C213.018 174.024 205.513 163.458 207.658 151.666C207.811 150.441 206.126 149.981 205.82 151.207C203.522 163.917 211.487 175.709 224.199 177.853C225.424 178.006 226.037 176.168 224.811 176.015Z" fill="#2252B2"/>
<path d="M241.508 179.233C238.752 179.539 236.148 176.323 237.373 173.72C237.833 172.648 236.301 171.729 235.688 172.801C233.85 176.63 237.067 181.683 241.355 181.224C242.734 180.918 242.734 179.08 241.508 179.233Z" fill="#D24A43"/>
<path d="M256.056 160.857C255.75 159.632 254.065 160.244 254.219 161.316C254.831 164.073 251.768 165.604 249.624 164.073C248.705 163.307 247.786 164.992 248.705 165.758C252.381 168.361 256.975 164.992 256.056 160.857Z" fill="#D24A43"/>
<path d="M242.275 146.766C241.663 148.145 240.897 149.676 240.284 151.054C239.824 152.126 241.356 153.045 241.969 151.973C242.582 150.595 243.348 149.064 243.96 147.685C244.42 146.613 242.735 145.694 242.275 146.766Z" fill="black"/>
<path d="M261.42 149.831C260.807 151.21 260.041 152.741 259.428 154.119C258.969 155.191 260.501 156.11 261.113 155.038C261.726 153.66 262.492 152.128 263.105 150.75C263.564 149.678 261.879 148.759 261.42 149.831Z" fill="black"/>
<path d="M247.939 139.724C246.867 139.571 245.795 139.265 244.876 139.112C243.957 138.959 242.885 139.418 242.579 140.49C242.273 141.409 242.885 142.634 243.957 142.787C245.029 142.94 246.102 143.247 247.02 143.4C247.939 143.553 249.012 143.093 249.318 142.021C249.624 141.103 249.012 140.031 247.939 139.724Z" fill="#952C28"/>
<path d="M263.717 140.335C262.951 140.181 262.185 139.875 261.572 139.722C259.275 139.109 258.203 142.632 260.5 143.397C261.266 143.551 262.032 143.857 262.645 144.01C264.942 144.623 266.014 140.947 263.717 140.335Z" fill="#952C28"/>
<path d="M441.737 217.224H274.751L216.625 331.919H441.737V217.224Z" fill="black"/>
<path d="M352.222 261.477C339.504 275.719 326.634 289.96 313.917 304.048C313.151 304.967 314.376 306.345 315.296 305.426L353.601 262.855C354.367 261.937 352.988 260.559 352.222 261.477Z" fill="white"/>
<path d="M356.514 272.045C347.014 282.304 337.515 292.717 327.862 302.977C327.096 303.896 328.322 305.274 329.241 304.355C338.741 294.096 348.24 283.683 357.893 273.423C358.659 272.504 357.28 271.126 356.514 272.045Z" fill="white"/>
<path d="M341.433 191.559C330.446 188.542 319.002 192.615 312.44 201.966C311.067 203.926 314.272 205.736 315.645 203.776C321.138 195.933 331.056 192.615 340.364 195.179C342.806 195.782 343.721 192.162 341.433 191.559Z" fill="#FECA55"/>
<path d="M346.621 172.249C327.394 163.049 305.421 170.138 296.113 189.292C295.045 191.404 298.25 193.364 299.318 191.102C307.71 173.908 326.937 166.97 344.637 175.416C346.773 176.472 348.757 173.305 346.621 172.249Z" fill="#FECA55"/>
</g>
</svg>
